X: 071
T: Marchioness of Blandfords Reel
%O: 1795
R: reel
Z: 2018 John Chambers <jc:trillian.mit.edu>
B: Wm. Campbell "10th Book of New and Favorite Country Dances, Strathey Reels" 1795 p.7
F: https://archive.org/details/campbellstenthbo00camp
N: Flats added to low B notes when the bass line has B flats.
N: The repeat notation is ambiguous; transcribed as repeats for the 4-bar strains (1,3), not for the 8-bar strains (2,4).
M: C|
L: 1/8
K: C
%%slurgraces yes
%%graceslurs yes
% - - - - - - - - - - - - - - - - - - - - - - - - -
% Voice 1 arranged for small-scale proofreading
V: 1 staves=2
g |\
ecTc2 {ABc}GcEc | D_B-BG D_B,-B,g |\
ecTc2 {ABc}GcEc | Dc-cG ECC :| F |\
ECGE cGEC | D_B-BF D_B,B,F |
.E.C.G.E .c.G.E.C | Dc-cG EC-CF |\
ECGE cGEC | D_BAB FBD_B, |\
CDEF GABc | defg ecc |]
|: g |\
ecGc EcGc | D_BFB D_B,B,g |\
ecGc EcGc | AcGc DCC :| a |\
gecg ecGE | D_B-BF D_B,-B,a |
gecg ecGE | DccG ECCa |\
gecg afdf | ecgc Bcdf |\
ecGc EcGc | defg ecc |]
% - - - - - - - - - - - - - - - - - - - - - - - - -
% Voice 1 preserves the original staff layout
V: 2 clef=bass middle=d
z |\
c2e2 c2e2 | _B2d2 B2d2 |\
c2e2 c2e2 | g2G2 c2c :|\
z |\
[e2c2][e2c2] [e2c2][e2c2] | [d2_B2][d2B2] [d2B2][d2B2] |\
[e2c2][e2c2] [e2c2][e2c2] |
g2G2 c2z2 |\
[e2c2][e2c2] [e2c2][e2c2] | [d2_B2][d2B2] [d2B2][d2B2] |\
c2c2 c2c2 | g2G2 c2c |] \
|: z |\
c2c2 c2c2 | _B2B2 _B2B2 | c2c2 c2c2 |
f2g2 c2c :| z |\
c4 c4 | _B4 B4 | c4 c4 | g2g2 c2cz |\
e4 f4 | e4 g2f2 | e2c2 e2c2 | g2G2 c2c |]
% - - - - - - - - - - - - - - - - - - - - - - - - -
%%begintext align
%% 1st & 2d Cu set & change sides Back again -- Lead down the
%% middle up again to the top then 1st & 2d Cu hands across half
%% round back again -- Poussette quite round with the 2d Cu
%% hands 6 round Allemande.
%%endtext
% - - - - - - - - - - - - - - - - - - - - - - - - -

%%sep 1 1 500
%%sep 1 1 500

